X: 1
P: Akdomes
N: from handwritten MS
Z: John Chambers <jc:trillian.mit.edu>
M: 4/4
L: 1/8
K: Gphr
[| "G"GG GG G4 | "Fm"FC FA "G"G4 | "G"G2 =B2 G2 d2 | =B2 f2 "Fm"d/c/B/A/ B/A/G/F/ |
|  "G"GG GG G4 | "Fm"c=B c2 F4 | FG GA A=B Bc | "G"d=B "Fm"cA "G"G4 ||
|: "Cm"g6 ^f2 | ed c6 | g2 "rit."c2 b2 =a2 | g2 ^f2 e2 d2 |
| "G"d4 dg gd  | d=B BG G4 | "Fm"HF2 HF2 Hc2 =BA | "G"=BA G6 :|
